X:1
T:Wear a Crown
T:A. E. Lind
T:Wear a Crown
T:Public Domain
T:Public Domain
T:Public Domain
C:A. E. Lind
Z:Public Domain
%%score ( 1 2 ) ( 3 4 )
L:1/8
M:4/4
K:F
V:1 treble 
V:2 treble 
V:3 bass 
V:4 bass 
V:1
 [CF]>[CG] | [FA]2 [Fc]2 [Fd]2 [Fc]2 | [FA]6 [EG]>[FA] | [GB]2 [GB]2 [Ed]2 [Ec]2 | %4
w: 1.~Bu- gle|calls are ring- ing|out, “For- ward”|is the bat- tle|
w: 2.~Sound the|charge a- gainst the|foe, Lay the|hosts of er- ror|
w: 3.~Fight the|fight of faith and|love, Look- ing|un- to Him a-|
 [Fc]6 [CF]>[CG] | [FA]2 [Fc]2 [Fd]2 [Fc]2 | [FA]6 [FA]>[FA] | [EG]2 [Gf]2 [Ge]3 [Fd] | [Ec]6 || %9
w: shout, See where|floats the con- qu’ring|sign, On- ward|to the war di-|vine!|
w: low; In His|Name, vic- tor- ious|King, Let the|song of tri- umph|ring!|
w: bove; Loy- al|sol- diers, do and|dare, Your Com-|mand- er’s joy to|share.|
"^Refrain" C2 | [CF]>[CF] [CF]>[CG] [FA]2 [FA]2 | [Fc]>[Fd] [Fc]>[FB] [FA]4 | %12
w: And|the bat- tle’s o- ver, we|shall wear a crown, We|
w: |||
w: ~|~ ~ ~ ~ ~ ~|~ ~ ~ ~ ~|
 [GB]>[Ac] [GB]>[FA] [EG]4 | [FA]>[FB] [FA]>[CG] [CF]2 C2 | [CF]>[CF] [CF]>[CG] [FA]2 [FA]2 | %15
w: shall wear a crown, we|shall wear a crown! And when|bat- tle’s o- ver, we shall|
w: |||
w: ~ ~ ~ ~ ~|~ ~ ~ ~ ~ ~|~ ~ ~ ~ ~ ~|
 [Fc]>[Fd] [Fc]>[FB] [FA]2 [Fc]>[Fc] | [GB]3 [GB] [FA]2 [EG]2 | F6 F>G | (z2 F>F F2) A>B | %19
w: wear a crown In the new Je-|ru- sa- lem! Wear|a crown, wear|* * * crown, a-|
w: ||||
w: ~ ~ ~ ~ ~ ~ ~|~ ~ ~ ~|~ wear~a~crown, ~|* * * wear~a~crown *|
 z2 F>F F2 [Fc]2 | [Fd]4 [Ff]2 [Fd]2 | [Fd]2 [Fc]4 C2 |] %22
w: * * * o-|* Jor- dan!|And * *|
w: |||
w: |||
V:2
 x2 | x8 | x8 | x8 | x8 | x8 | x8 | x8 | x6 || C2 | x8 | x8 | x8 | x6 C2 | x8 | x8 | x8 | F6 x2 | %18
w: |||||||||when||||the||||a|
w: ||||||||||||||||||
w: |||||||||~||||~||||~|
 A6 x2 | c6 x2 | x8 | x6 C2 |] %22
w: way|ver|||
w: ||||
w: ||||
V:3
 [F,A,]>[F,B,] | [F,C]2 [F,A,]2 [F,B,]2 [F,A,]2 | [F,C]6 [C,C]>[C,C] | %3
w: ~ ~|~ ~ ~ ~|~ ~ ~|
 [C,C]2 [C,C]2 [C,B,]2 [C,B,]2 | [F,A,]6 [F,A,]>[F,B,] | [F,C]2 [F,A,]2 [F,B,]2 [F,A,]2 | %6
w: ~ ~ ~ ~|~ ~ ~|~ ~ ~ ~|
 [F,C]6 [F,C]>[F,C] | [G,C]2 [G,=B,]2 [G,C]3 G, | [C,G,]6 || [F,A,]2 | %10
w: ~ ~ ~|~ ~ ~ ~|~|~|
 [F,A,]>[F,A,] [F,A,]>[F,B,] [F,C]2 [F,C]2 | [F,A,]>[F,B,] [F,A,]>[F,D] [F,C]4 | %12
w: ~ ~ ~ ~ ~ ~|~ ~ ~ ~ ~|
 [C,C]>[C,C] [C,C]>[C,C] [C,C]4 | [F,C]>[F,D] [F,C]>[F,B,] [F,A,]2 [F,A,]2 | %14
w: ~ ~ ~ ~ ~|~ ~ ~ ~ ~ D.S.~when|
 [F,A,]>[F,A,] [F,A,]>[F,B,] [F,C]2 [F,C]2 | [F,A,]>[F,B,] [F,A,]>[F,D] [F,C]2 [A,C]>[A,C] | %16
w: the bat- tle’s o- ver We|shall wear a crown In the new|
 [B,D]3 [G,D] C2 [C,B,]2 | [F,A,]6 A,>B, | z2 F,>F, F,2 F,>G, | z2 F,>F, F,2 [F,A,]2 | %20
w: Je- ru- sa- lem|a crown, Wear|a crown, * * *||
 B,4 [B,D]2 B,2 | [F,B,]2 [F,A,]4 [F,A,]2 |] %22
w: ||
V:4
 x2 | x8 | x8 | x8 | x8 | x8 | x8 | x7 G, | x6 || x2 | x8 | x8 | x8 | x8 | x8 | x8 | x4 C2 x2 | %17
w: |||||||~|||||||||Wear|
 x8 | C6 x2 | A,6 x2 | B,4 B,2 x2 | x8 |] %22
w: |||||

